X:1
T:Cobb's Horse
M:4/4
C:Chris Leslie
S:Radford
N:
A:Adderbury
O:English
R:Reel
%P:A(AB)$^4$
P:A(AB)4
%
%
K:D
I:speed 400
P:A
   dcBA  B2 g2 | f2  d2 e2 A2 | d2 cB A2 G2 | F2  A2 E3 E   |\
   DEFG  A2 d2 | c2  e2 d2 ag | f2 ed e2 c2 | d4     d4     ||\
P:B
|: agfe  d2 A2 | c2  B2 A4    | agfe d2 A2  | c2  B2 A2 Bc  |\
   d2 d2 e2 f2 | g2  f2 e2 ag | f2 ed e2 A2 | d4     d4     :|
